X:30
T:Édesanyám rózsafája
M:4/4
L:1/4
K:F
A>F G<A | A>FE<D |
F<G G G | c>B A<G |
F<F G>G | F<F F z |
F<G G G | G>F G<A |
DDFF | G>F G<A |
D<D D G/(F//E//) | D<D D z |

